packages/kaspersky-hexa-ui-icons/src/iconsSVGs/32/VirtualStorageMachineServer.svg

<svg xmlns="http://www.w3.org/2000/svg" width="32" height="32" fill="none" viewBox="0 0 32 32"><path fill="#000" fill-rule="evenodd" d="M16 5c-3.4173 0-5.5775 2.5477-6.0136 5.1644A1 1 0 0 1 9 11c-2.7614 0-5 2.2386-5 5 0 2.419 1.7178 4.4367 4 4.9v2.0291C4.6077 22.4439 2 19.5265 2 16c0-3.5907 2.7036-6.55 6.1862-6.9532C9.0297 5.9363 11.7736 3 16 3s6.9704 2.9363 7.8138 6.0468C27.2964 9.45 30 12.4093 30 16c0 3.5265-2.6077 6.4439-6 6.9291V20.9c2.2822-.4633 4-2.481 4-4.9 0-2.7614-2.2386-5-5-5a1 1 0 0 1-.9864-.8356C21.5775 7.5477 19.4173 5 16 5m-6 9c0-1.1046.8954-2 2-2h8c1.1046 0 2 .8954 2 2v13c0 1.1046-.8954 2-2 2h-8c-1.1046 0-2-.8954-2-2zm2 0v13h8V14zm2 2c-.5523 0-1 .4477-1 1s.4477 1 1 1h4c.5523 0 1-.4477 1-1s-.4477-1-1-1zm2 8c.5523 0 1-.4477 1-1s-.4477-1-1-1-1 .4477-1 1 .4477 1 1 1"/></svg>

<svg width="32" height="32" viewBox="0 0 32 32" fill="none" xmlns="http://www.w3.org/2000/svg">
<path d="M16 5C12.5827 5 10.4225 7.54774 9.98639 10.1644C9.90603 10.6466 9.48884 11 9 11C6.23858 11 4 13.2386 4 16C4 18.419 5.71776 20.4367 8 20.9V22.9291C4.60771 22.4439 2 19.5265 2 16C2 12.4093 4.70358 9.45002 8.18617 9.0468C9.02965 5.93628 11.7736 3 16 3C20.2264 3 22.9704 5.93628 23.8138 9.0468C27.2964 9.45002 30 12.4093 30 16C30 19.5265 27.3923 22.4439 24 22.9291V20.9C26.2822 20.4367 28 18.419 28 16C28 13.2386 25.7614 11 23 11C22.5112 11 22.094 10.6466 22.0136 10.1644C21.5775 7.54774 19.4173 5 16 5Z" fill="black"/>
<path d="M13 17C13 16.4477 13.4477 16 14 16H18C18.5523 16 19 16.4477 19 17C19 17.5523 18.5523 18 18 18H14C13.4477 18 13 17.5523 13 17Z" fill="black"/>
<path d="M16 24C16.5523 24 17 23.5523 17 23C17 22.4477 16.5523 22 16 22C15.4477 22 15 22.4477 15 23C15 23.5523 15.4477 24 16 24Z" fill="black"/>
<path fill-rule="evenodd" clip-rule="evenodd" d="M12 12C10.8954 12 10 12.8954 10 14V27C10 28.1046 10.8954 29 12 29H20C21.1046 29 22 28.1046 22 27V14C22 12.8954 21.1046 12 20 12H12ZM12 27V14H20V27H12Z" fill="black"/>
</svg>
